src/images/courses/forms/card.svg

<svg width="640" height="320" viewBox="0 0 640 320" fill="none" xmlns="http://www.w3.org/2000/svg">
<g clip-path="url(#clip0)">
<g clip-path="url(#clip1)">
<rect x="130.5" y="240.5" width="47" height="47" stroke="#3399FF"/>
<rect x="218.5" y="240.5" width="47" height="47" stroke="#3399FF"/>
<path d="M230 263L238.69 273.5L254 255" stroke="#3399FF"/>
<rect x="130.5" y="32.5" width="239" height="47" stroke="#FF66CC"/>
<path d="M353.515 47.4853L336.544 64.4559M336.544 47.4853L353.515 64.4559" stroke="#FF66CC"/>
<rect x="514.5" y="240.5" width="239" height="47" stroke="#FF66CC"/>
<path d="M535.818 265.125L530.631 263.438L531.131 261.859L536.318 263.781L536.256 258H537.881L537.756 263.828L542.818 261.844L543.334 263.422L538.131 265.219L541.615 269.812L540.287 270.797L536.943 266.031L533.756 270.766L532.428 269.812L535.818 265.125Z" fill="#FF66CC"/>
<path d="M552.612 265.125L547.425 263.438L547.925 261.859L553.112 263.781L553.05 258H554.675L554.55 263.828L559.612 261.844L560.128 263.422L554.925 265.219L558.409 269.812L557.081 270.797L553.737 266.031L550.55 270.766L549.221 269.812L552.612 265.125Z" fill="#FF66CC"/>
<path d="M569.406 265.125L564.218 263.438L564.718 261.859L569.906 263.781L569.843 258H571.468L571.343 263.828L576.406 261.844L576.921 263.422L571.718 265.219L575.203 269.812L573.875 270.797L570.531 266.031L567.343 270.766L566.015 269.812L569.406 265.125Z" fill="#FF66CC"/>
<path d="M586.2 265.125L581.012 263.438L581.512 261.859L586.7 263.781L586.637 258H588.262L588.137 263.828L593.2 261.844L593.715 263.422L588.512 265.219L591.996 269.812L590.668 270.797L587.325 266.031L584.137 270.766L582.809 269.812L586.2 265.125Z" fill="#FF66CC"/>
<path d="M602.993 265.125L597.806 263.438L598.306 261.859L603.493 263.781L603.431 258H605.056L604.931 263.828L609.993 261.844L610.509 263.422L605.306 265.219L608.79 269.812L607.462 270.797L604.118 266.031L600.931 270.766L599.603 269.812L602.993 265.125Z" fill="#FF66CC"/>
<circle cx="434" cy="56" r="23.5" stroke="#3399FF"/>
<circle cx="434" cy="56" r="15.5" stroke="#3399FF"/>
<mask id="mask0" style="mask-type:alpha" maskUnits="userSpaceOnUse" x="418" y="40" width="32" height="32">
<circle cx="434" cy="56" r="16" fill="#C4C4C4"/>
</mask>
<g mask="url(#mask0)">
<path d="M433.941 22L400 55.9411M438.184 26.2426L404.243 60.1838M442.426 30.4853L408.485 64.4264M446.669 34.7279L412.728 68.669M450.912 38.9706L416.971 72.9117M455.154 43.2132L421.213 77.1543M463.64 51.6985L429.699 85.6396M467.882 55.9411L433.941 89.8822M459.397 47.4558L425.456 81.397" stroke="#3399FF"/>
</g>
<rect x="618.5" y="32.5" width="79" height="47" rx="23.5" stroke="#3399FF"/>
<circle cx="642" cy="56" r="15.5" stroke="#3399FF"/>
<mask id="mask1" style="mask-type:alpha" maskUnits="userSpaceOnUse" x="626" y="40" width="32" height="32">
<circle cx="642" cy="56" r="16" fill="#C4C4C4"/>
</mask>
<g mask="url(#mask1)">
<path d="M641.941 22L608 55.9411M646.184 26.2426L612.243 60.1838M650.426 30.4853L616.485 64.4264M654.669 34.7279L620.728 68.669M658.912 38.9706L624.971 72.9117M663.154 43.2132L629.213 77.1543M671.64 51.6985L637.699 85.6396M675.882 55.9411L641.941 89.8822M667.397 47.4558L633.456 81.397" stroke="#3399FF"/>
</g>
<rect x="498.5" y="32.5" width="79" height="47" rx="23.5" stroke="#3399FF"/>
<path fill-rule="evenodd" clip-rule="evenodd" d="M522 40C513.163 40 506 47.1634 506 56C506 64.8366 513.163 72 522 72H554C545.163 72 538 64.8366 538 56C538 47.1634 545.163 40 554 40H522Z" fill="#3399FF"/>
<circle cx="554" cy="56" r="15.5" stroke="#3399FF"/>
<circle cx="390" cy="264" r="15.5" stroke="#3399FF"/>
<mask id="mask2" style="mask-type:alpha" maskUnits="userSpaceOnUse" x="374" y="248" width="32" height="32">
<circle cx="390" cy="264" r="16" fill="#C4C4C4"/>
</mask>
<g mask="url(#mask2)">
<path d="M389.941 230L356 263.941M394.184 234.243L360.243 268.184M398.426 238.485L364.485 272.426M402.669 242.728L368.728 276.669M406.912 246.971L372.971 280.912M411.154 251.213L377.213 285.154M419.64 259.698L385.699 293.64M423.882 263.941L389.941 297.882M415.397 255.456L381.456 289.397" stroke="#3399FF"/>
</g>
<line x1="306" y1="263.5" x2="366" y2="263.5" stroke="#3399FF"/>
<line x1="414" y1="263.5" x2="474" y2="263.5" stroke="#3399FF"/>
</g>
<path d="M24 140H30.1202V173.279H46.8962V179.126H24V140Z" fill="#3C4043"/>
<path d="M63.7596 180C61.1003 180 58.6959 179.381 56.5465 178.142C54.4336 176.903 52.776 175.191 51.5739 173.005C50.3717 170.783 49.7706 168.306 49.7706 165.574C49.7706 162.951 50.3352 160.546 51.4646 158.361C52.6303 156.138 54.2514 154.39 56.328 153.115C58.4045 151.803 60.7724 151.148 63.4318 151.148C66.164 151.148 68.532 151.749 70.5356 152.951C72.5757 154.153 74.1239 155.829 75.1804 157.978C76.2369 160.091 76.7651 162.532 76.7651 165.301C76.7651 165.628 76.7469 165.956 76.7105 166.284C76.674 166.612 76.6558 166.794 76.6558 166.831H55.7815C55.9637 169.308 56.8562 171.22 58.4591 172.568C60.062 173.916 61.8835 174.59 63.9236 174.59C67.0565 174.59 69.4609 173.133 71.1367 170.219L76.2733 172.678C75.0711 174.9 73.3953 176.685 71.246 178.033C69.1331 179.344 66.6376 180 63.7596 180ZM70.6449 162.24C70.572 161.366 70.2806 160.474 69.7706 159.563C69.2606 158.652 68.4591 157.887 67.3662 157.268C66.3097 156.612 64.98 156.284 63.3771 156.284C61.5921 156.284 60.0438 156.831 58.7323 157.923C57.4573 159.016 56.583 160.455 56.1094 162.24H70.6449Z" fill="#3C4043"/>
<path d="M90.8857 180C88.9549 180 87.2062 179.617 85.6398 178.852C84.1097 178.051 82.8893 176.958 81.9786 175.574C81.1042 174.153 80.6671 172.55 80.6671 170.765C80.6671 167.923 81.7236 165.683 83.8365 164.044C85.9859 162.404 88.6999 161.585 91.9786 161.585C94.8565 161.585 97.3155 162.077 99.3556 163.06V161.913C99.3556 160.273 98.6999 158.925 97.3884 157.869C96.1133 156.776 94.5651 156.23 92.7436 156.23C89.9749 156.23 87.7527 157.359 86.0769 159.617L81.4868 156.448C82.7618 154.736 84.3465 153.424 86.2409 152.514C88.1716 151.603 90.3392 151.148 92.7436 151.148C96.7144 151.148 99.7746 152.149 101.924 154.153C104.11 156.12 105.203 158.907 105.203 162.514V179.126H99.3556V175.792H99.0277C98.1534 177.031 97.0423 178.051 95.6944 178.852C94.3465 179.617 92.7436 180 90.8857 180ZM91.8693 175.027C93.2172 175.027 94.4558 174.699 95.5851 174.044C96.7509 173.352 97.6616 172.459 98.3174 171.366C99.0095 170.237 99.3556 169.035 99.3556 167.76C97.4248 166.703 95.3665 166.175 93.1807 166.175C91.1771 166.175 89.6106 166.612 88.4813 167.486C87.352 168.361 86.7873 169.472 86.7873 170.82C86.7873 172.058 87.2791 173.078 88.2627 173.88C89.2828 174.645 90.4849 175.027 91.8693 175.027Z" fill="#3C4043"/>
<path d="M111.549 152.022H117.232V156.066H117.56C118.142 154.681 119.199 153.534 120.729 152.623C122.259 151.676 123.826 151.202 125.428 151.202C126.74 151.202 127.815 151.384 128.652 151.749V158.033C127.414 157.413 126.03 157.104 124.499 157.104C122.532 157.104 120.875 157.869 119.527 159.399C118.215 160.893 117.56 162.732 117.56 164.918V179.126H111.549V152.022Z" fill="#3C4043"/>
<path d="M133.054 152.022H138.737V155.628H139.065C139.867 154.317 141.033 153.242 142.563 152.404C144.093 151.566 145.75 151.148 147.535 151.148C150.887 151.148 153.419 152.131 155.131 154.098C156.88 156.066 157.754 158.78 157.754 162.24V179.126H151.743V163.06C151.743 158.798 149.757 156.667 145.787 156.667C143.783 156.667 142.162 157.468 140.923 159.071C139.685 160.674 139.065 162.568 139.065 164.754V179.126H133.054V152.022Z" fill="#3C4043"/>
<path d="M169.754 179.126V140H193.47V145.683H175.765V157.158H191.721V162.842H175.765V179.126H169.754Z" fill="url(#paint0_linear)"/>
<path d="M210.381 180C207.504 180 204.972 179.344 202.786 178.033C200.6 176.721 198.888 174.954 197.649 172.732C196.411 170.51 195.791 167.996 195.791 165.191C195.791 162.423 196.411 159.927 197.649 157.705C198.888 155.446 200.6 153.661 202.786 152.35C204.972 151.038 207.504 150.383 210.381 150.383C213.223 150.383 215.737 151.038 217.922 152.35C220.108 153.661 221.82 155.446 223.059 157.705C224.298 159.927 224.917 162.423 224.917 165.191C224.917 167.996 224.298 170.51 223.059 172.732C221.82 174.954 220.108 176.721 217.922 178.033C215.737 179.344 213.223 180 210.381 180ZM210.381 174.59C211.912 174.59 213.332 174.226 214.644 173.497C215.955 172.732 217.012 171.658 217.813 170.273C218.651 168.852 219.07 167.158 219.07 165.191C219.07 163.224 218.651 161.548 217.813 160.164C217.012 158.743 215.955 157.668 214.644 156.94C213.332 156.175 211.912 155.792 210.381 155.792C208.851 155.792 207.412 156.175 206.065 156.94C204.753 157.668 203.678 158.743 202.84 160.164C202.039 161.548 201.638 163.224 201.638 165.191C201.638 167.158 202.039 168.852 202.84 170.273C203.678 171.658 204.753 172.732 206.065 173.497C207.412 174.226 208.851 174.59 210.381 174.59Z" fill="url(#paint1_linear)"/>
<path d="M229.819 179.126V151.257H235.393V155.355H235.72C236.34 153.934 237.396 152.769 238.89 151.858C240.42 150.911 242.059 150.437 243.808 150.437C244.573 150.437 245.21 150.492 245.72 150.601C246.267 150.71 246.759 150.838 247.196 150.984V157.104C246.504 156.812 245.793 156.576 245.065 156.393C244.373 156.211 243.644 156.12 242.879 156.12C241.495 156.12 240.256 156.503 239.163 157.268C238.107 157.996 237.269 158.998 236.649 160.273C236.03 161.512 235.72 162.878 235.72 164.372V179.126H229.819Z" fill="url(#paint2_linear)"/>
<path d="M251.751 179.126V151.257H257.325V155.082H257.653C258.455 153.734 259.62 152.623 261.15 151.749C262.68 150.838 264.374 150.383 266.232 150.383C268.309 150.383 270.076 150.874 271.533 151.858C272.99 152.842 274.028 154.08 274.648 155.574C275.558 154.117 276.797 152.896 278.363 151.913C279.93 150.893 281.843 150.383 284.101 150.383C287.38 150.383 289.821 151.384 291.424 153.388C293.026 155.355 293.828 157.978 293.828 161.257V179.126H287.981V162.24C287.981 160.018 287.489 158.397 286.506 157.377C285.558 156.321 284.229 155.792 282.516 155.792C281.169 155.792 279.985 156.175 278.965 156.94C277.945 157.668 277.143 158.67 276.56 159.945C276.014 161.22 275.741 162.641 275.741 164.208V179.126H269.894V162.24C269.894 160.018 269.402 158.397 268.418 157.377C267.434 156.321 266.05 155.792 264.265 155.792C262.954 155.792 261.806 156.175 260.822 156.94C259.839 157.705 259.056 158.725 258.473 160C257.926 161.275 257.653 162.696 257.653 164.262V179.126H251.751Z" fill="url(#paint3_linear)"/>
<path d="M310.37 180C307.018 180 304.341 179.271 302.337 177.814C300.334 176.321 298.949 174.554 298.184 172.514L303.485 170.219C304.14 171.712 305.088 172.86 306.326 173.661C307.565 174.426 308.967 174.809 310.534 174.809C311.991 174.809 313.248 174.554 314.304 174.044C315.361 173.497 315.889 172.623 315.889 171.421C315.889 170.255 315.361 169.399 314.304 168.852C313.248 168.306 311.936 167.832 310.37 167.432L307.037 166.667C305.689 166.339 304.432 165.829 303.266 165.137C302.1 164.444 301.153 163.552 300.425 162.459C299.696 161.33 299.332 160.018 299.332 158.525C299.332 156.885 299.824 155.464 300.807 154.262C301.791 153.024 303.084 152.077 304.687 151.421C306.326 150.729 308.093 150.383 309.987 150.383C312.574 150.383 314.833 150.893 316.763 151.913C318.731 152.896 320.17 154.39 321.08 156.393L315.998 158.689C315.343 157.45 314.487 156.594 313.43 156.12C312.41 155.61 311.281 155.355 310.042 155.355C308.658 155.355 307.492 155.647 306.545 156.23C305.634 156.812 305.179 157.541 305.179 158.415C305.179 159.362 305.579 160.109 306.381 160.656C307.219 161.202 308.239 161.639 309.441 161.967L313.485 162.951C316.253 163.643 318.33 164.699 319.714 166.12C321.099 167.505 321.791 169.199 321.791 171.202C321.791 172.987 321.281 174.554 320.261 175.902C319.241 177.213 317.856 178.233 316.108 178.962C314.395 179.654 312.483 180 310.37 180Z" fill="url(#paint4_linear)"/>
<path d="M328.253 166.667L327.706 152.295V140H333.608V152.295L333.007 166.667H328.253ZM330.657 179.454C329.492 179.454 328.508 179.053 327.706 178.251C326.905 177.45 326.504 176.485 326.504 175.355C326.504 174.226 326.905 173.26 327.706 172.459C328.508 171.658 329.492 171.257 330.657 171.257C331.787 171.257 332.752 171.658 333.553 172.459C334.355 173.26 334.756 174.226 334.756 175.355C334.756 176.485 334.355 177.45 333.553 178.251C332.752 179.053 331.787 179.454 330.657 179.454Z" fill="url(#paint5_linear)"/>
</g>
<defs>
<linearGradient id="paint0_linear" x1="169.754" y1="180" x2="331.12" y2="128.589" gradientUnits="userSpaceOnUse">
<stop offset="0.0677083" stop-color="#3399FF"/>
<stop offset="0.34375" stop-color="#0066FF"/>
<stop offset="0.619792" stop-color="#9933FF"/>
<stop offset="0.911458" stop-color="#FF3399"/>
</linearGradient>
<linearGradient id="paint1_linear" x1="169.754" y1="180" x2="331.12" y2="128.589" gradientUnits="userSpaceOnUse">
<stop offset="0.0677083" stop-color="#3399FF"/>
<stop offset="0.34375" stop-color="#0066FF"/>
<stop offset="0.619792" stop-color="#9933FF"/>
<stop offset="0.911458" stop-color="#FF3399"/>
</linearGradient>
<linearGradient id="paint2_linear" x1="169.754" y1="180" x2="331.12" y2="128.589" gradientUnits="userSpaceOnUse">
<stop offset="0.0677083" stop-color="#3399FF"/>
<stop offset="0.34375" stop-color="#0066FF"/>
<stop offset="0.619792" stop-color="#9933FF"/>
<stop offset="0.911458" stop-color="#FF3399"/>
</linearGradient>
<linearGradient id="paint3_linear" x1="169.754" y1="180" x2="331.12" y2="128.589" gradientUnits="userSpaceOnUse">
<stop offset="0.0677083" stop-color="#3399FF"/>
<stop offset="0.34375" stop-color="#0066FF"/>
<stop offset="0.619792" stop-color="#9933FF"/>
<stop offset="0.911458" stop-color="#FF3399"/>
</linearGradient>
<linearGradient id="paint4_linear" x1="169.754" y1="180" x2="331.12" y2="128.589" gradientUnits="userSpaceOnUse">
<stop offset="0.0677083" stop-color="#3399FF"/>
<stop offset="0.34375" stop-color="#0066FF"/>
<stop offset="0.619792" stop-color="#9933FF"/>
<stop offset="0.911458" stop-color="#FF3399"/>
</linearGradient>
<linearGradient id="paint5_linear" x1="169.754" y1="180" x2="331.12" y2="128.589" gradientUnits="userSpaceOnUse">
<stop offset="0.0677083" stop-color="#3399FF"/>
<stop offset="0.34375" stop-color="#0066FF"/>
<stop offset="0.619792" stop-color="#9933FF"/>
<stop offset="0.911458" stop-color="#FF3399"/>
</linearGradient>
<clipPath id="clip0">
<rect width="640" height="320" fill="white"/>
</clipPath>
<clipPath id="clip1">
<rect width="640" height="640" fill="white" transform="translate(0 -160)"/>
</clipPath>
</defs>
</svg>

<svg width="640" height="320" viewBox="0 0 640 320" fill="none" xmlns="http://www.w3.org/2000/svg"><g clip-path="url(#a)"><path fill="#fff" d="M0 0h640v320H0z"/><path d="M177.5 240.5h-47v47h47v-47ZM265.5 240.5h-47v47h47v-47Z" stroke="#39F"/><path d="m230 263 8.69 10.5L254 255" stroke="#39F"/><path d="M369.5 32.5h-239v47h239v-47ZM336.544 47.485l16.971 16.971m0-16.97-16.971 16.97 16.971-16.97ZM753.5 240.5h-239v47h239v-47Z" stroke="#F6C"/><path d="m535.818 265.125-5.187-1.687.5-1.579 5.187 1.922-.062-5.781h1.625l-.125 5.828 5.062-1.984.516 1.578-5.203 1.797 3.484 4.593-1.328.985-3.344-4.766-3.187 4.735-1.328-.954 3.39-4.687ZM552.612 265.125l-5.187-1.687.5-1.579 5.187 1.922-.062-5.781h1.625l-.125 5.828 5.062-1.984.516 1.578-5.203 1.797 3.484 4.593-1.328.985-3.344-4.766-3.187 4.735-1.329-.954 3.391-4.687ZM569.406 265.125l-5.188-1.687.5-1.579 5.188 1.922-.063-5.781h1.625l-.125 5.828 5.063-1.984.515 1.578-5.203 1.797 3.485 4.593-1.328.985-3.344-4.766-3.188 4.735-1.328-.954 3.391-4.687ZM586.2 265.125l-5.188-1.687.5-1.579 5.188 1.922-.063-5.781h1.625l-.125 5.828 5.063-1.984.515 1.578-5.203 1.797 3.484 4.593-1.328.985-3.343-4.766-3.188 4.735-1.328-.954 3.391-4.687ZM602.993 265.125l-5.187-1.687.5-1.579 5.187 1.922-.062-5.781h1.625l-.125 5.828 5.062-1.984.516 1.578-5.203 1.797 3.484 4.593-1.328.985-3.344-4.766-3.187 4.735-1.328-.954 3.39-4.687Z" fill="#F6C"/><path d="M434 79.5c12.979 0 23.5-10.521 23.5-23.5S446.979 32.5 434 32.5 410.5 43.021 410.5 56s10.521 23.5 23.5 23.5Z" stroke="#39F"/><path d="M434 71.5c8.56 0 15.5-6.94 15.5-15.5 0-8.56-6.94-15.5-15.5-15.5-8.56 0-15.5 6.94-15.5 15.5 0 8.56 6.94 15.5 15.5 15.5Z" stroke="#39F"/><mask id="b" style="mask-type:alpha" maskUnits="userSpaceOnUse" x="418" y="40" width="32" height="32"><path d="M434 72c8.837 0 16-7.163 16-16s-7.163-16-16-16-16 7.163-16 16 7.163 16 16 16Z" fill="#C4C4C4"/></mask><g mask="url(#b)"><path d="m459.397 47.456-33.941 33.941M433.941 22 400 55.941 433.941 22Zm4.243 4.243-33.941 33.94 33.941-33.94Zm4.242 4.242-33.941 33.941 33.941-33.94Zm4.243 4.243-33.941 33.941 33.941-33.941Zm4.243 4.243-33.941 33.94 33.941-33.94Zm4.242 4.242-33.941 33.941 33.941-33.94Zm8.486 8.486-33.941 33.94L463.64 51.7Zm4.242 4.242-33.941 33.941 33.941-33.94Z" stroke="#39F"/></g><mask id="c" style="mask-type:alpha" maskUnits="userSpaceOnUse" x="626" y="40" width="32" height="32"><path d="M642 72c8.837 0 16-7.163 16-16s-7.163-16-16-16-16 7.163-16 16 7.163 16 16 16Z" fill="#C4C4C4"/></mask><g mask="url(#c)"><path d="m667.397 47.456-33.941 33.941M641.941 22 608 55.941 641.941 22Zm4.243 4.243-33.941 33.94 33.941-33.94Zm4.242 4.242-33.941 33.941 33.941-33.94Zm4.243 4.243-33.941 33.941 33.941-33.941Zm4.243 4.243-33.941 33.94 33.941-33.94Zm4.242 4.242-33.941 33.941 33.941-33.94Zm8.486 8.486-33.941 33.94L671.64 51.7Zm4.242 4.242-33.941 33.941 33.941-33.94Z" stroke="#39F"/></g><mask id="d" style="mask-type:alpha" maskUnits="userSpaceOnUse" x="374" y="248" width="32" height="32"><path d="M390 280c8.837 0 16-7.163 16-16s-7.163-16-16-16-16 7.163-16 16 7.163 16 16 16Z" fill="#C4C4C4"/></mask><g mask="url(#d)"><path d="m415.397 255.456-33.941 33.941M389.941 230 356 263.941 389.941 230Zm4.243 4.243-33.941 33.941 33.941-33.941Zm4.242 4.242-33.941 33.941 33.941-33.941Zm4.243 4.243-33.941 33.941 33.941-33.941Zm4.243 4.243-33.941 33.941 33.941-33.941Zm4.242 4.242-33.941 33.941 33.941-33.941Zm8.486 8.485-33.941 33.942 33.941-33.942Zm4.242 4.243-33.941 33.941 33.941-33.941Z" stroke="#39F"/></g><path d="M24 140h6.12v33.279h16.776v5.847H24V140ZM63.76 180c-2.66 0-5.064-.619-7.214-1.858-2.112-1.239-3.77-2.951-4.972-5.137-1.202-2.222-1.803-4.699-1.803-7.431 0-2.623.564-5.028 1.694-7.213 1.165-2.223 2.786-3.971 4.863-5.246 2.076-1.312 4.444-1.967 7.104-1.967 2.732 0 5.1.601 7.103 1.803 2.04 1.202 3.589 2.878 4.645 5.027 1.057 2.113 1.585 4.554 1.585 7.323 0 .327-.018.655-.055.983-.036.328-.054.51-.054.547H55.78c.183 2.477 1.075 4.389 2.678 5.737 1.603 1.348 3.424 2.022 5.464 2.022 3.133 0 5.538-1.457 7.214-4.371l5.136 2.459a14.196 14.196 0 0 1-5.027 5.355C69.133 179.344 66.638 180 63.76 180Zm6.885-17.76c-.073-.874-.364-1.766-.874-2.677s-1.312-1.676-2.405-2.295c-1.056-.656-2.386-.984-3.989-.984-1.785 0-3.333.547-4.645 1.639-1.275 1.093-2.15 2.532-2.623 4.317h14.536ZM90.886 180c-1.931 0-3.68-.383-5.246-1.148-1.53-.801-2.75-1.894-3.662-3.278-.874-1.421-1.311-3.024-1.311-4.809 0-2.842 1.056-5.082 3.17-6.721 2.149-1.64 4.863-2.459 8.141-2.459 2.878 0 5.337.492 7.378 1.475v-1.147c0-1.64-.656-2.988-1.968-4.044-1.275-1.093-2.823-1.639-4.645-1.639-2.768 0-4.99 1.129-6.666 3.387l-4.59-3.169a12.722 12.722 0 0 1 4.754-3.934c1.93-.911 4.098-1.366 6.502-1.366 3.971 0 7.032 1.001 9.181 3.005 2.186 1.967 3.279 4.754 3.279 8.361v16.612h-5.847v-3.334h-.328a10.735 10.735 0 0 1-3.334 3.06c-1.348.765-2.95 1.148-4.808 1.148Zm.983-4.973a7.275 7.275 0 0 0 3.716-.983c1.166-.692 2.077-1.585 2.732-2.678.692-1.129 1.039-2.331 1.039-3.606a12.664 12.664 0 0 0-6.175-1.585c-2.004 0-3.57.437-4.7 1.311-1.13.875-1.694 1.986-1.694 3.334 0 1.238.492 2.258 1.476 3.06 1.02.765 2.222 1.147 3.606 1.147ZM111.549 152.022h5.683v4.044h.328c.582-1.385 1.639-2.532 3.169-3.443 1.53-.947 3.097-1.421 4.699-1.421 1.312 0 2.387.182 3.224.547v6.284c-1.238-.62-2.622-.929-4.153-.929-1.967 0-3.624.765-4.972 2.295-1.312 1.494-1.967 3.333-1.967 5.519v14.208h-6.011v-27.104ZM133.054 152.022h5.683v3.606h.328c.802-1.311 1.968-2.386 3.498-3.224 1.53-.838 3.187-1.256 4.972-1.256 3.352 0 5.884.983 7.596 2.95 1.749 1.968 2.623 4.682 2.623 8.142v16.886h-6.011V163.06c0-4.262-1.986-6.393-5.956-6.393-2.004 0-3.625.801-4.864 2.404-1.238 1.603-1.858 3.497-1.858 5.683v14.372h-6.011v-27.104Z" fill="#3C4043"/><path d="M169.754 179.126V140h23.716v5.683h-17.705v11.475h15.956v5.684h-15.956v16.284h-6.011Z" fill="url(#e)"/><path d="M210.381 180c-2.877 0-5.409-.656-7.595-1.967a14.076 14.076 0 0 1-5.137-5.301c-1.238-2.222-1.858-4.736-1.858-7.541 0-2.768.62-5.264 1.858-7.486 1.239-2.259 2.951-4.044 5.137-5.355 2.186-1.312 4.718-1.967 7.595-1.967 2.842 0 5.356.655 7.541 1.967 2.186 1.311 3.898 3.096 5.137 5.355 1.239 2.222 1.858 4.718 1.858 7.486 0 2.805-.619 5.319-1.858 7.541a14.076 14.076 0 0 1-5.137 5.301c-2.185 1.311-4.699 1.967-7.541 1.967Zm0-5.41a8.63 8.63 0 0 0 4.263-1.093c1.311-.765 2.368-1.839 3.169-3.224.838-1.421 1.257-3.115 1.257-5.082 0-1.967-.419-3.643-1.257-5.027-.801-1.421-1.858-2.496-3.169-3.224a8.315 8.315 0 0 0-4.263-1.148c-1.53 0-2.969.383-4.316 1.148-1.312.728-2.387 1.803-3.225 3.224-.801 1.384-1.202 3.06-1.202 5.027s.401 3.661 1.202 5.082c.838 1.385 1.913 2.459 3.225 3.224a8.932 8.932 0 0 0 4.316 1.093Z" fill="url(#f)"/><path d="M229.819 179.126v-27.869h5.574v4.098h.327c.62-1.421 1.676-2.586 3.17-3.497 1.53-.947 3.169-1.421 4.918-1.421.765 0 1.402.055 1.912.164.547.109 1.039.237 1.476.383v6.12a14.676 14.676 0 0 0-2.131-.711 8.563 8.563 0 0 0-2.186-.273c-1.384 0-2.623.383-3.716 1.148-1.056.728-1.894 1.73-2.514 3.005-.619 1.239-.929 2.605-.929 4.099v14.754h-5.901Z" fill="url(#g)"/><path d="M251.751 179.126v-27.869h5.574v3.825h.328c.802-1.348 1.967-2.459 3.497-3.333 1.53-.911 3.224-1.366 5.082-1.366 2.077 0 3.844.491 5.301 1.475 1.457.984 2.495 2.222 3.115 3.716.91-1.457 2.149-2.678 3.715-3.661 1.567-1.02 3.48-1.53 5.738-1.53 3.279 0 5.72 1.001 7.323 3.005 1.602 1.967 2.404 4.59 2.404 7.869v17.869h-5.847V162.24c0-2.222-.492-3.843-1.475-4.863-.948-1.056-2.277-1.585-3.99-1.585-1.347 0-2.531.383-3.551 1.148-1.02.728-1.822 1.73-2.405 3.005-.546 1.275-.819 2.696-.819 4.263v14.918h-5.847V162.24c0-2.222-.492-3.843-1.476-4.863-.984-1.056-2.368-1.585-4.153-1.585-1.311 0-2.459.383-3.443 1.148-.983.765-1.766 1.785-2.349 3.06-.547 1.275-.82 2.696-.82 4.262v14.864h-5.902Z" fill="url(#h)"/><path d="M310.37 180c-3.352 0-6.029-.729-8.033-2.186-2.003-1.493-3.388-3.26-4.153-5.3l5.301-2.295c.655 1.493 1.603 2.641 2.841 3.442 1.239.765 2.641 1.148 4.208 1.148 1.457 0 2.714-.255 3.77-.765 1.057-.547 1.585-1.421 1.585-2.623 0-1.166-.528-2.022-1.585-2.569-1.056-.546-2.368-1.02-3.934-1.42l-3.333-.765a13.682 13.682 0 0 1-3.771-1.53 8.7 8.7 0 0 1-2.841-2.678c-.729-1.129-1.093-2.441-1.093-3.934 0-1.64.492-3.061 1.475-4.263.984-1.238 2.277-2.185 3.88-2.841 1.639-.692 3.406-1.038 5.3-1.038 2.587 0 4.846.51 6.776 1.53 1.968.983 3.407 2.477 4.317 4.48l-5.082 2.296c-.655-1.239-1.511-2.095-2.568-2.569-1.02-.51-2.149-.765-3.388-.765-1.384 0-2.55.292-3.497.875-.911.582-1.366 1.311-1.366 2.185 0 .947.4 1.694 1.202 2.241.838.546 1.858.983 3.06 1.311l4.044.984c2.768.692 4.845 1.748 6.229 3.169 1.385 1.385 2.077 3.079 2.077 5.082 0 1.785-.51 3.352-1.53 4.7-1.02 1.311-2.405 2.331-4.153 3.06-1.713.692-3.625 1.038-5.738 1.038Z" fill="url(#i)"/><path d="m328.253 166.667-.547-14.372V140h5.902v12.295l-.601 14.372h-4.754Zm2.404 12.787c-1.165 0-2.149-.401-2.951-1.203-.801-.801-1.202-1.766-1.202-2.896 0-1.129.401-2.095 1.202-2.896.802-.801 1.786-1.202 2.951-1.202 1.13 0 2.095.401 2.896 1.202.802.801 1.203 1.767 1.203 2.896 0 1.13-.401 2.095-1.203 2.896-.801.802-1.766 1.203-2.896 1.203Z" fill="url(#j)"/></g><defs><linearGradient id="e" x1="169.754" y1="180" x2="331.12" y2="128.589" gradientUnits="userSpaceOnUse"><stop offset=".068" stop-color="#39F"/><stop offset=".344" stop-color="#06F"/><stop offset=".62" stop-color="#93F"/><stop offset=".911" stop-color="#F39"/></linearGradient><linearGradient id="f" x1="169.754" y1="180" x2="331.12" y2="128.589" gradientUnits="userSpaceOnUse"><stop offset=".068" stop-color="#39F"/><stop offset=".344" stop-color="#06F"/><stop offset=".62" stop-color="#93F"/><stop offset=".911" stop-color="#F39"/></linearGradient><linearGradient id="g" x1="169.754" y1="180" x2="331.12" y2="128.589" gradientUnits="userSpaceOnUse"><stop offset=".068" stop-color="#39F"/><stop offset=".344" stop-color="#06F"/><stop offset=".62" stop-color="#93F"/><stop offset=".911" stop-color="#F39"/></linearGradient><linearGradient id="h" x1="169.754" y1="180" x2="331.12" y2="128.589" gradientUnits="userSpaceOnUse"><stop offset=".068" stop-color="#39F"/><stop offset=".344" stop-color="#06F"/><stop offset=".62" stop-color="#93F"/><stop offset=".911" stop-color="#F39"/></linearGradient><linearGradient id="i" x1="169.754" y1="180" x2="331.12" y2="128.589" gradientUnits="userSpaceOnUse"><stop offset=".068" stop-color="#39F"/><stop offset=".344" stop-color="#06F"/><stop offset=".62" stop-color="#93F"/><stop offset=".911" stop-color="#F39"/></linearGradient><linearGradient id="j" x1="169.754" y1="180" x2="331.12" y2="128.589" gradientUnits="userSpaceOnUse"><stop offset=".068" stop-color="#39F"/><stop offset=".344" stop-color="#06F"/><stop offset=".62" stop-color="#93F"/><stop offset=".911" stop-color="#F39"/></linearGradient><clipPath id="a"><path fill="#fff" d="M0 0h640v320H0z"/></clipPath></defs></svg>
